svg/outline/diners.svg

<svg height="471" viewBox="0 0 750 471" width="750" xmlns="http://www.w3.org/2000/svg"><g fill="none"><path d="m52.8846154 28.2035928c-13.2760757 0-24.0384616 10.5226489-24.0384616 23.502994v367.5868262c0 12.980345 10.7623859 23.502994 24.0384616 23.502994h644.2307696c13.276075 0 24.038461-10.522649 24.038461-23.502994v-367.5868262c0-12.9803451-10.762386-23.502994-24.038461-23.502994zm0-28.2035928h644.2307696c29.207366 0 52.884615 23.1498275 52.884615 51.7065868v367.5868262c0 28.55676-23.677249 51.706587-52.884615 51.706587h-644.2307696c-29.2073666 0-52.8846154-23.149827-52.8846154-51.706587v-367.5868262c0-28.5567593 23.6772488-51.7065868 52.8846154-51.7065868z" fill="#393939"/><path d="m584.867822 237.100205c0-99.415799-82.980935-168.1332589-173.894987-168.1001931h-78.242184c-92.003041-.0330658-167.730651 68.7048951-167.730651 168.1001931 0 90.930439 75.72761 165.640093 167.730651 165.203624h78.242184c90.914052.435808 173.894987-74.293024 173.894987-165.203624zm-251.653609-154.0165001c84.089723.0264527 152.227413 68.3074431 152.239952 152.5797421-.011879 84.25775-68.150229 152.532127-152.239952 152.55858-84.070583-.026453-152.194413-68.30083-152.214213-152.55858.0198-84.272299 68.144289-152.5532894 152.214213-152.5797421zm-96.214213 152.1669011c.078539 41.186167 25.746332 76.282927 61.940354 90.229443v-180.480049c-36.194022 13.954453-61.861155 49.07039-61.940354 90.250606zm131 90.275074c36.207223-13.947178 61.913954-49.056502 61.979954-90.269122-.066-41.200055-25.772731-76.335833-61.979954-90.256558z" fill="#373737"/></g></svg>

<svg width="750" height="471" viewBox="0 0 750 471" version="1.1" xmlns="http://www.w3.org/2000/svg" xmlns:xlink="http://www.w3.org/1999/xlink">
    <!-- Generator: Sketch 48.2 (47327) - http://www.bohemiancoding.com/sketch -->
    <desc>Created with Sketch.</desc>
    <defs></defs>
    <g id="Page-1" stroke="none" stroke-width="1" fill="none" fill-rule="evenodd">
        <g id="diners" fill-rule="nonzero">
            <path d="M52.8846154,28.2035928 C39.6085397,28.2035928 28.8461538,38.7262417 28.8461538,51.7065868 L28.8461538,419.293413 C28.8461538,432.273758 39.6085397,442.796407 52.8846154,442.796407 L697.115385,442.796407 C710.39146,442.796407 721.153846,432.273758 721.153846,419.293413 L721.153846,51.7065868 C721.153846,38.7262417 710.39146,28.2035928 697.115385,28.2035928 L52.8846154,28.2035928 Z M52.8846154,0 L697.115385,0 C726.322751,-5.0099645e-15 750,23.1498275 750,51.7065868 L750,419.293413 C750,447.850173 726.322751,471 697.115385,471 L52.8846154,471 C23.6772488,471 3.41607085e-15,447.850173 0,419.293413 L0,51.7065868 C-3.41607085e-15,23.1498275 23.6772488,5.0099645e-15 52.8846154,0 Z" id="Rectangle-1" fill="#393939"></path>
            <path d="M584.867822,237.100205 C584.867822,137.684406 501.886887,68.9669461 410.972835,69.0000119 L332.730651,69.0000119 C240.72761,68.9669461 165,137.704907 165,237.100205 C165,328.030644 240.72761,402.740298 332.730651,402.303829 L410.972835,402.303829 C501.886887,402.739637 584.867822,328.010805 584.867822,237.100205 Z M333.214213,83.0837049 C417.303936,83.1101576 485.441626,151.391148 485.454165,235.663447 C485.442286,319.921197 417.303936,388.195574 333.214213,388.222027 C249.14363,388.195574 181.0198,319.921197 181,235.663447 C181.0198,151.391148 249.144289,83.1101576 333.214213,83.0837049 Z M237,235.250606 C237.078539,276.436773 262.746332,311.533533 298.940354,325.480049 L298.940354,145 C262.746332,158.954453 237.079199,194.07039 237,235.250606 Z M368,325.52568 C404.207223,311.578502 429.913954,276.469178 429.979954,235.256558 C429.913954,194.056503 404.207223,158.920725 368,145 L368,325.52568 Z" id="Shape" fill="#373737"></path>
        </g>
    </g>
</svg>
